X:1
T:Yendo me y viniendo
T:Anonymous
T:Source : Cancionero de Uppsala : Villancicos---Venetia---G.Scotto---1556. Editor : André Vierendeels (08/04/17).
T:Notes : Original clefs : C1, C2 Editorial accidentals above the staff Square bracket indicates ligature Original note values have been halved   
T:Yendo me y viniendo
T:©
T:©
C:Anonymous
Z:©
%%score [ 1 2 ]
L:1/8
Q:1/4=120
M:4/4
K:C
V:1 treble nm="Soprano" snm="S"
V:2 treble-8 nm="Tenor" snm="T"
V:1
 z8 | A2 A2 G2 A2 | F4 E2 D2 | E2 E2 F4 | G2 A4 G2 | A8 | z2 A4 A2 | G2 A2 F4 | E2 G4 E2 | %9
w: |Yen- do me y|vi- nien- do|me suy E-|nz- mo- ran-|do,|u- na|vez- ri- en-|do y'o- tra|
w: |Nun- ca mi ci-|i- da- do|se va mo-|de- ran- *|do|a'un que-|ste ri- en-|do y'o- tra|
 F2 G2 E4 | D2 G4 E2 | F2 G2 F4 | E4 D4 || z8 | A2 A2 A2 B2 | c4 A2 G2- | G2 E2 F2 E2 | F2 G4 A2 | %18
w: vez llo- ran-|do y'o- tra|vez llo- ran-|* do.||Yo es- ta- va|sin ve- ros|_ de a- mor|des- cu- i-|
w: vez llor- ran-|do, y'o- tra|vre llo- ran-|* do.||Mas en co- no-|çe- ros me|_ vi en- a-|mo- ra- *|
 F2 G4 F2 | E4 !fermata!D4 |] %20
w: dan- * *|* do.|
w: |* do.|
V:2
 a2 a2 g2 a2 | f4 e2 c2 | d2 A4 B2 | c2 e3 d d2- | d2 c2 B4 | A4 z2 d2- | d2 d2 c2 d2 | B2 A4 d2- | %8
w: Yen- do me y|vi- nien- do|me suy e-|na- mo- * ran-||do, u-|* na vez- ri-|en- do y'o-|
w: Nun- ca mi cu-|i- da- do|se va mo-|de- ran- * *||do, a'un|_ que- ste ri-|en- do y'o-|
 d2 B2 c2 c2 | d2 B2 z2 g2- | gfed cB c2 | A2 e3 d d2- | d2 c2 d4 || d2 d2 d2 e2 | f4 d2 g2 | %15
w: * tra vez llo-|ran- do, y'o-|* * * * * * tra|vez llo- ran- *|* * do.|Yo es- ta- va|sin ve- ros|
w: * tra vez llo-|ran- do, y'o-|* * * * * * tra|vez llo- ran- *|* * do.|Mas en- co- no-|çe- ros me|
 f2 e2 z2 e2- | e2 c2 d3 c | d2 e2 c4 | d2 e3 d d2- |"^#" d2 c2 !fermata!d4 |] %20
w: de'a- mor, de|_ a- mor _|_ des cu-|i- dan- * *|* * do.|
w: _ vi, me|_ vi'en- a- *|* mo- ra-||* * do.|

